public/images/logo/logo-white.svg

<svg fill="none" height="55" viewBox="0 0 157 55" width="157" xmlns="http://www.w3.org/2000/svg"><path d="m60.7033 14.4004c2.3053 0 4.3067.38 6.004 1.14 1.7227.76 3.04 1.8493 3.952 3.268s1.368 3.1033 1.368 5.054c0 1.9253-.456 3.61-1.368 5.054-.912 1.4187-2.2293 2.508-3.952 3.268-1.6973.76-3.6987 1.14-6.004 1.14h-6.004v7.676h-4.94v-26.6zm-.228 14.744c2.1533 0 3.7873-.456 4.902-1.368s1.672-2.2167 1.672-3.914-.5573-3.002-1.672-3.914-2.7487-1.368-4.902-1.368h-5.776v10.564zm18.9852-14.744h4.94v22.42h13.908v4.18h-18.848zm42.6855 20.444h-13.3l-2.622 6.156h-5.092l11.97-26.6h4.864l12.008 26.6h-5.168zm-1.634-3.876-5.016-11.628-4.978 11.628zm25.225.646v9.386h-4.94v-9.31l-10.45-17.29h5.282l7.79 12.958 7.866-12.958h4.864z" fill="#fff"/><path d="m20 47c11.0457 0 20-8.9543 20-20s-8.9543-20-20-20-20 8.9543-20 20 8.9543 20 20 20z" fill="#fff"/><path clip-rule="evenodd" d="m12.5752 30.682c-2.1213-3.5353-1.7676-6.7176 1.0607-9.5459 4.2426-4.2427 7.9549-1.591 10.6066-3.182 1.768-1.0607 2.475-2.8283 2.1213-5.3033 2.1213 3.5353 1.7677 6.7176-1.0606 9.5459-4.2427 4.2427-7.955 1.591-10.6066 3.182-1.768 1.0607-2.475 2.8283-2.1214 5.3033zm1.0607 11.6673c-2.1213-3.5353-1.7677-6.7176 1.0607-9.546 4.2426-4.2426 7.9549-1.591 10.6066-3.1819 1.7679-1.0607 2.4749-2.8284 2.1213-5.3033 2.1213 3.5353 1.7676 6.7176-1.0607 9.5459-4.2426 4.2426-7.9549 1.591-10.6066 3.182-1.768 1.0606-2.475 2.8283-2.1213 5.3033z" fill="#3056d3" fill-rule="evenodd"/></svg>

<svg width="157" height="55" viewBox="0 0 157 55" fill="none" xmlns="http://www.w3.org/2000/svg">
<path d="M60.7033 14.4004C63.0086 14.4004 65.01 14.7804 66.7073 15.5404C68.43 16.3004 69.7473 17.3897 70.6593 18.8084C71.5713 20.2271 72.0273 21.9117 72.0273 23.8624C72.0273 25.7877 71.5713 27.4724 70.6593 28.9164C69.7473 30.3351 68.43 31.4244 66.7073 32.1844C65.01 32.9444 63.0086 33.3244 60.7033 33.3244H54.6993V41.0004H49.7593V14.4004H60.7033ZM60.4753 29.1444C62.6286 29.1444 64.2626 28.6884 65.3773 27.7764C66.492 26.8644 67.0493 25.5597 67.0493 23.8624C67.0493 22.1651 66.492 20.8604 65.3773 19.9484C64.2626 19.0364 62.6286 18.5804 60.4753 18.5804H54.6993V29.1444H60.4753ZM79.4605 14.4004H84.4005V36.8204H98.3085V41.0004H79.4605V14.4004ZM122.146 34.8444H108.846L106.224 41.0004H101.132L113.102 14.4004H117.966L129.974 41.0004H124.806L122.146 34.8444ZM120.512 30.9684L115.496 19.3404L110.518 30.9684H120.512ZM145.737 31.6144V41.0004H140.797V31.6904L130.347 14.4004H135.629L143.419 27.3584L151.285 14.4004H156.149L145.737 31.6144Z" fill="white"/>
<path d="M20 47C31.0457 47 40 38.0457 40 27C40 15.9543 31.0457 7 20 7C8.9543 7 0 15.9543 0 27C0 38.0457 8.9543 47 20 47Z" fill="white"/>
<path d="M30.552 37.36L12.4169 14H9V30.2405H11.7335V17.4714L28.4062 39.0129C29.1586 38.5095 29.8753 37.9568 30.552 37.36Z" fill="url(#paint0_linear_309_16)"/>
<path d="M25.473 14H22.7651V30.2473H25.473V14Z" fill="url(#paint1_linear_309_16)"/>
<defs>
<linearGradient id="paint0_linear_309_16" x1="21.4111" y1="28.1035" x2="29.4219" y2="38.0324" gradientUnits="userSpaceOnUse">
<stop stop-color="#3056D3"/>
<stop offset="1" stop-color="white" stop-opacity="0"/>
</linearGradient>
<linearGradient id="paint1_linear_309_16" x1="24.1191" y1="14" x2="24.0737" y2="25.9316" gradientUnits="userSpaceOnUse">
<stop stop-color="#3056D3"/>
<stop offset="1" stop-color="white" stop-opacity="0"/>
</linearGradient>
</defs>
</svg>
